X: 68
T:Gan Ainm
M:4/4
L:1/8
R:reel
Z:Jean Lewis
K:D
z4 z2 dB|:AF 3F G2 FG|AF 3F EGFE|DEFA dfec|dBAF E2 dB|!
AF 3F G2 FG|AF 3F EGFE|3D FA dfec|
1 dBAF D2 dB:|2 dBAF D2 de||! 
|:f2 f2 g2 fg|afdf edBA|f2 fe dfec|dBAF E2 fg|!
af 3f bf 3f|afdf edBA|f2 fe dfec|1 dBAF D2 de:|2 dBAF D4||
